templates/main/source/images/ros.svg

<?xml version="1.0" encoding="utf-8"?>
<svg width="219px" height="40px" viewBox="0 0 219 40" version="1.1" xmlns:xlink="http://www.w3.org/1999/xlink" xmlns="http://www.w3.org/2000/svg">
  <desc>Created with Lunacy</desc>
  <g id="header-logo-slogan">
    <path d="M17.2183 1.56511C15.8816 0.410952 14.1294 -0.143423 12.3721 0.0317855L0 0.0317855L0 20.2718L3.69767 20.2718L3.69767 13.5248L12.3721 13.5248C16.7107 13.5248 19.4419 11.1155 19.4419 6.93876L19.4419 6.13597C19.359 4.37187 18.555 2.71927 17.2183 1.56511ZM15.746 7.25969C15.5911 8.8898 14.1668 10.1005 12.533 9.99085L3.53488 9.98992L3.53488 3.24295L12.8549 3.24295C14.6263 3.42641 15.9176 5.0052 15.746 6.77783L15.746 7.25969Z" transform="translate(53.23047 9.780273)" id="Path_3712" fill="#000000" fill-rule="evenodd" stroke="none" />
    <path d="M11.7265 21.2093C5.3014 21.2093 0 16.8726 0 10.6047C0 4.33674 5.30233 0 11.7265 0C18.1507 0 23.453 4.33674 23.453 10.6047C23.453 16.8726 18.1507 21.2093 11.7265 21.2093M11.7265 3.3786C7.69474 3.0829 4.17982 6.09599 3.85581 10.1256L3.85581 10.6102C3.85581 14.787 6.90791 17.8391 11.7265 17.8391C16.5451 17.8391 19.5972 14.787 19.5972 10.6102C19.5972 6.43349 16.5451 3.3814 11.7265 3.3814" transform="translate(74.41797 9.168945)" id="Path_3713" fill="#000000" stroke="none" />
    <path d="M11.7265 21.2191C4.97953 21.2191 0 16.8824 0 10.6145C0 4.34657 5.14046 0.00982431 11.7265 0.00982431C15.0965 -0.115792 18.4004 0.966616 21.0428 3.06192L19.1153 5.96331C17.051 4.34031 14.5121 3.43761 11.8865 3.39308C6.90698 3.39308 3.85488 6.44517 3.85488 10.4628C3.85488 14.4805 6.90698 17.6917 11.8865 17.6917C14.5487 17.7316 17.1484 16.8839 19.2753 15.2824L21.2028 18.1735C18.4412 20.1567 15.1264 21.2221 11.7265 21.2191" transform="translate(101.21094 9.158203)" id="Path_3714" fill="#000000" stroke="none" />
    <path d="M4.01488 20.0744L6.26419 15.2558L17.186 15.2605L19.4353 20.0791L23.4512 20.0791L13.653 0L9.79814 0L0 20.0744L4.01488 20.0744ZM15.5814 12.0428L7.8707 12.0428L11.7265 3.85023L15.5814 12.0428Z" transform="translate(146.92969 9.65625)" id="Path_3715" fill="#000000" fill-rule="evenodd" stroke="none" />
    <path d="M16.866 20.0791L16.866 11.4047L3.69395 11.4047L3.69395 20.0791L0 20.0791L0 0L3.69488 0L3.69488 8.19256L16.867 8.19256L16.867 0L20.5581 0L20.5581 20.0791L16.866 20.0791Z" transform="translate(173.11328 9.8125)" id="Path_3716" fill="#000000" stroke="none" />
    <path d="M0 20.0791L0 0L3.69488 0L3.69488 9.31628L13.8149 0L18.3126 0L8.03163 9.63814L18.7907 20.0791L13.8112 20.0791L3.69488 10.2809L3.69488 20.0791L0 20.0791Z" transform="translate(199.29297 9.8125)" id="Path_3717" fill="#000000" stroke="none" />
    <path d="M12.5293 7.38884L3.85488 7.38884L3.85488 3.21209L18.1516 3.21209L18.1516 0L0 0L0 20.0791L12.3721 20.0791C16.7088 20.0791 19.7609 17.6698 19.7609 13.654C19.7609 9.63814 17.0298 7.38884 12.5321 7.38884M12.853 16.7051L3.85767 16.7051L3.85767 10.7628L12.853 10.7628C15.1023 10.7628 16.5479 12.0474 16.5479 13.8149C16.5479 15.5823 15.4233 16.867 12.853 16.706" transform="translate(126.09766 9.65625)" id="Path_3718" fill="#000000" stroke="none" />
    <path d="M0 0L40.3191 0L40.3191 20.5609L0 20.5609L0 0Z" id="Rectangle_2047" fill="#E9041E" stroke="none" />
    <path d="M0 0L40.3191 0L40.3191 20.0791L0 20.0791L0 0Z" transform="translate(0 19.545898)" id="Rectangle_2048" fill="#000000" stroke="none" />
    <path d="M0 0L26.1833 0L26.1833 2.4093L0 2.4093L0 0Z" transform="translate(6.921875 18.46289)" id="Rectangle_2049" fill="#FFFFFF" stroke="none" />
  </g>
</svg>

<svg width="219" height="40" viewBox="0 0 219 40" xmlns:xlink="http://www.w3.org/1999/xlink" xmlns="http://www.w3.org/2000/svg"><g id="header-logo-slogan" stroke="none"><path d="M17.218 1.565A6.438 6.438 0 0012.372.032H0v20.24h3.698v-6.747h8.674c4.339 0 7.07-2.41 7.07-6.586v-.803a6.438 6.438 0 00-2.224-4.57zM15.746 7.26a3.024 3.024 0 01-3.213 2.73H3.535V3.243h9.32a3.24 3.24 0 012.891 3.535v.482z" transform="translate(53.23 9.78)" id="Path_3712" fill="#000" fill-rule="evenodd"/><path d="M11.726 21.21C5.301 21.21 0 16.872 0 10.604 0 4.337 5.302 0 11.726 0c6.425 0 11.727 4.337 11.727 10.605 0 6.268-5.302 10.604-11.726 10.604m0-17.83a7.356 7.356 0 00-7.871 6.747v.484c0 4.177 3.052 7.23 7.87 7.23 4.82 0 7.871-3.053 7.871-7.23 0-4.177-3.052-7.229-7.87-7.229" transform="translate(74.418 9.169)" id="Path_3713" fill="#000"/><path d="M11.726 21.22C4.98 21.22 0 16.881 0 10.614 0 4.346 5.14.01 11.726.01c3.37-.126 6.674.957 9.317 3.052l-1.928 2.901a12.026 12.026 0 00-7.228-2.57c-4.98 0-8.032 3.052-8.032 7.07 0 4.018 3.052 7.229 8.031 7.229 2.663.04 5.262-.808 7.39-2.41l1.927 2.892a16.221 16.221 0 01-9.476 3.045" transform="translate(101.21 9.158)" id="Path_3714" fill="#000"/><path d="M4.015 20.074l2.25-4.818 10.921.005 2.25 4.818h4.015L13.653 0H9.798L0 20.074h4.015zm11.566-8.031h-7.71l3.855-8.193 3.855 8.193z" transform="translate(146.93 9.656)" id="Path_3715" fill="#000" fill-rule="evenodd"/><path d="M16.866 20.08v-8.675H3.694v8.674H0V0h3.695v8.193h13.172V0h3.691v20.08h-3.692z" transform="translate(173.113 9.813)" id="Path_3716" fill="#000"/><path d="M0 20.08V0h3.695v9.316L13.815 0h4.498L8.032 9.638 18.79 20.08h-4.98L3.695 10.281v9.798H0z" transform="translate(199.293 9.813)" id="Path_3717" fill="#000"/><path d="M12.53 7.389H3.854V3.212h14.297V0H0v20.08h12.372c4.337 0 7.389-2.41 7.389-6.426s-2.731-6.265-7.229-6.265m.321 9.316H3.858v-5.942h8.995c2.25 0 3.695 1.284 3.695 3.052 0 1.767-1.125 3.052-3.695 2.891" transform="translate(126.098 9.656)" id="Path_3718" fill="#000"/><path d="M0 0h40.32v20.56H0V0z" id="Rectangle_2047" fill="#E9041E"/><path d="M0 0h40.32v20.08H0V0z" transform="translate(0 19.546)" id="Rectangle_2048" fill="#000"/><path d="M0 0h26.183v2.41H0V0z" transform="translate(6.922 18.463)" id="Rectangle_2049" fill="#FFF"/></g></svg>
